src/img/change.svg

<svg fill="none" height="24" viewBox="0 0 24 24" width="24" xmlns="http://www.w3.org/2000/svg"><path clip-rule="evenodd" d="m18.4496 6.08569-4.2426-4.24264c-.0707-.07072-.2121-.21214-.3536-.21214-.2121-.07071-.4949-.07071-.7071 0-.1414 0-.2828.14142-.3535.21214l-4.24267 4.24264c-.42426.42426-.42426.98995 0 1.41421.42427.42426.98995.42426 1.41421 0l2.54556-2.54558v7.49528c0 .5657.4243.99.99.99.2828 0 .495-.0707.7071-.2828.2121-.2122.2828-.4243.2828-.7072v-7.49528l2.5456 2.54558c.4243.42426.99.42426 1.4142 0 .4243-.42426.4243-.98995 0-1.41421zm-8.93967 12.95981v-7.4953c0-.5657.42426-.9899.98997-.9899.5657 0 .9899.4242.9899.9899v7.4953l2.5456-2.5455c.4243-.4243.99-.4243 1.4142 0 .4243.4242.4243.9899 0 1.4142l-4.2426 4.2426c-.0707.0707-.2121.2121-.3536.2121-.2121.0708-.4949.0708-.7071 0-.1414 0-.28282-.1414-.35353-.2121l-4.24264-4.2426c-.42426-.4243-.42426-.99 0-1.4142.42427-.4243.98995-.4243 1.41422 0z" fill="#88898b" fill-rule="evenodd"/></svg>

<svg width="24" height="24" viewBox="0 0 24 24" fill="none" 
  xmlns="http://www.w3.org/2000/svg">
  <path fill-rule="evenodd" clip-rule="evenodd" d="M18.4496 6.08569L14.207 1.84305C14.1363 1.77233 13.9949 1.63091 13.8534 1.63091C13.6413 1.5602 13.3585 1.5602 13.1463 1.63091C13.0049 1.63091 12.8635 1.77233 12.7928 1.84305L8.55013 6.08569C8.12587 6.50995 8.12587 7.07564 8.55013 7.4999C8.9744 7.92416 9.54008 7.92416 9.96434 7.4999L12.5099 4.95432L12.5099 12.4496C12.5099 13.0153 12.9342 13.4396 13.4999 13.4396C13.7827 13.4396 13.9949 13.3689 14.207 13.1568C14.4191 12.9446 14.4898 12.7325 14.4898 12.4496L14.4898 4.95432L17.0354 7.4999C17.4597 7.92416 18.0254 7.92416 18.4496 7.4999C18.8739 7.07564 18.8739 6.50995 18.4496 6.08569ZM9.50993 19.0455L9.50993 11.5502C9.50993 10.9845 9.93419 10.5603 10.4999 10.5603C11.0656 10.5603 11.4898 10.9845 11.4898 11.5502L11.4898 19.0455L14.0354 16.5C14.4597 16.0757 15.0254 16.0757 15.4496 16.5C15.8739 16.9242 15.8739 17.4899 15.4496 17.9142L11.207 22.1568C11.1363 22.2275 10.9949 22.3689 10.8534 22.3689C10.6413 22.4397 10.3585 22.4397 10.1463 22.3689C10.0049 22.3689 9.86348 22.2275 9.79277 22.1568L5.55013 17.9142C5.12587 17.4899 5.12587 16.9242 5.55013 16.5C5.9744 16.0757 6.54008 16.0757 6.96435 16.5L9.50993 19.0455Z" fill="#88898B"/>
</svg>
